icons/linear-new-other-view-eye-watch-see-hide-no-slash.svg

<svg xmlns="http://www.w3.org/2000/svg" width="32px" height="32px" viewBox="0 0 32 32" version="1.1">
    <title>linear-new-other-view-eye-watch-see-hide-no-slash</title>
    <g id="linear-new-other-view-eye-watch-see-hide-no-slash" stroke-width="1" fill-rule="evenodd">
        <path d="M27.7071068,4.29289322 C28.0976311,4.68341751 28.0976311,5.31658249 27.7071068,5.70710678 L5.70710678,27.7071068 C5.31658249,28.0976311 4.68341751,28.0976311 4.29289322,27.7071068 C3.90236893,27.3165825 3.90236893,26.6834175 4.29289322,26.2928932 L6.64033603,23.9461485 C4.23575269,22.2046563 2.06775242,19.723238 0.142507074,16.5144958 C-0.0475023581,16.1978134 -0.0475023581,15.8021866 0.142507074,15.4855042 C4.31112365,8.53780995 9.61783858,5 16,5 C18.7443764,5 21.2898959,5.65416345 23.631577,6.95231884 L26.2928932,4.29289322 C26.6834175,3.90236893 27.3165825,3.90236893 27.7071068,4.29289322 Z M26.9224638,9.31970239 C28.7126652,10.9301761 30.3586457,12.9874255 31.8574929,15.4855042 C32.0475024,15.8021866 32.0475024,16.1978134 31.8574929,16.5144958 C27.6888763,23.46219 22.3821614,27 16,27 C13.9899997,27 12.0866701,26.6490937 10.2919685,25.9512772 L11.8622756,24.38146 C13.0764439,24.7616401 14.3411465,24.9659572 15.6572054,24.9960895 L16,25 C21.388539,25 25.9264581,22.1213476 29.6690461,16.2511508 L29.826,16 L29.6690461,15.7488492 C28.3774172,13.7229474 26.99106,12.0533546 25.5077019,10.7354305 L26.9224638,9.31970239 Z M22.5951954,13.6483824 C22.8572845,14.3833608 23,15.1750139 23,16 C23,19.8659932 19.8659932,23 16,23 C15.1750139,23 14.3833608,22.8572845 13.6483824,22.5951954 L15.2932282,20.9504341 C15.5241222,20.983103 15.7600878,21 16,21 C18.7614237,21 21,18.7614237 21,16 C21,15.7600878 20.983103,15.5241222 20.9504341,15.2932282 L22.5951954,13.6483824 Z M16,7 C10.611461,7 6.07354194,9.87865243 2.33095389,15.7488492 L2.173,16 L2.33095389,16.2511508 C4.07151247,18.9811925 5.98409191,21.0641978 8.07425369,22.5115224 L10.3929999,20.1913492 C9.51816053,19.0229102 9,17.5719665 9,16 C9,12.1340068 12.1340068,9 16,9 C17.5719665,9 19.0229102,9.51816053 20.1913492,10.3929999 L22.1512321,8.43354063 C20.3389379,7.5254947 18.4038444,7.0511 16.3427946,7.00391053 L16,7 Z M16,11 C13.2385763,11 11,13.2385763 11,16 C11,17.0189552 11.3048007,17.9667203 11.8282006,18.757094 L18.757094,11.8282006 C17.9667203,11.3048007 17.0189552,11 16,11 Z" id="&#24418;&#29366;" fill-rule="nonzero" />
    </g>
</svg>

<svg xmlns="http://www.w3.org/2000/svg" viewBox="0 0 32 32"><path fill="currentColor" d="M27.707 4.293a1 1 0 0 1 0 1.414l-22 22a1 1 0 1 1-1.414-1.414l2.347-2.347c-2.404-1.741-4.572-4.223-6.497-7.432a1 1 0 0 1 0-1.028C4.31 8.538 9.618 5 16 5c2.744 0 5.29.654 7.632 1.952l2.66-2.66a1 1 0 0 1 1.415 0m-.785 5.027c1.79 1.61 3.437 3.667 4.935 6.166a1 1 0 0 1 0 1.028C27.69 23.462 22.382 27 16 27c-2.01 0-3.913-.35-5.708-1.049l1.57-1.57c1.214.38 2.48.585 3.795.615L16 25c5.389 0 9.926-2.879 13.669-8.749l.157-.251-.157-.251c-1.292-2.026-2.678-3.696-4.161-5.014zm-4.327 4.328a7 7 0 0 1-8.947 8.947l1.645-1.645a5 5 0 0 0 5.657-5.657zM16 7c-5.389 0-9.926 2.879-13.669 8.749L2.173 16l.158.251c1.74 2.73 3.653 4.813 5.743 6.26l2.319-2.32a7 7 0 0 1 9.798-9.798l1.96-1.96a13.489 13.489 0 0 0-5.808-1.43zm0 4a5 5 0 0 0-4.172 7.757l6.93-6.929A4.977 4.977 0 0 0 16 11"/></svg>
